X: 6605
T: Cauldron, The
R: jig
M: 6/8
K: Amixolydian
|:AAA fAe|GGG eGd|AAA fAe|gdB GBd|
AAA fAe|GGG eGd|gdB GBd|cAA GAB:|
|:G>GG gfg|fef ede|afg efd|efg fde|
G>GG gfg|fef ede|gdB GBd|cAA GAB:|

